X: 875
T: The honeymoon reel
C: anon.
O: Ireland
B: Francis O'Neill: "The Dance Music of Ireland" (1907) no. 791
R: Reel
Z: Transcribed by Frank Nordberg - http://www.musicaviva.com
F: http://www.musicaviva.com/abc/tunes/ireland/oneill-1001/oneill-1001-079
1.abc
m: Tn = (3n/o/n/
m: Tn3 = n(3n/o/n/ m/n/
M: C|
L: 1/8
K: G
(dc)|BGAF DTG-G2|(3(Bcd) e(f ge)dc|BTG-G2 DTG-G2|B(edB) A2(dc)|BGAF DTG-G
2|B(def) Tg3a|bga(f gf)ed|(3(efg) (dB) A2||
(Bd)|e2(ef) edBA|(3(Bcd) e(f ge)dc|BTG-G2 DTG-G2|B(edB) A2(Bd)|ede(f ed)B
A|(3(Bcd) ef Tg3a|bga(f gf)ed|(3(efg) (dB) A2|]
W:
W:
W: From Musica Viva - http://www.musicaviva.com
W: the Internet center for free sheet music downloads.


